Numix-Light/22/status/yd-busy3.svg

<?xml version="1.0" encoding="UTF-8" standalone="no"?>
<!-- Created with Inkscape (http://www.inkscape.org/) -->

<svg
   xmlns:dc="http://purl.org/dc/elements/1.1/"
   xmlns:cc="http://creativecommons.org/ns#"
   xmlns:rdf="http://www.w3.org/1999/02/22-rdf-syntax-ns#"
   xmlns:svg="http://www.w3.org/2000/svg"
   xmlns="http://www.w3.org/2000/svg"
   xmlns:sodipodi="http://sodipodi.sourceforge.net/DTD/sodipodi-0.dtd"
   xmlns:inkscape="http://www.inkscape.org/namespaces/inkscape"
   id="svg2"
   version="1.1"
   inkscape:version="0.91 r"
   width="22"
   height="22"
   viewBox="0 0 22 22"
   sodipodi:docname="yd-busy3.svg">
  <metadata
     id="metadata8">
    <rdf:RDF>
      <cc:Work
         rdf:about="">
        <dc:format>image/svg+xml</dc:format>
        <dc:type
           rdf:resource="http://purl.org/dc/dcmitype/StillImage" />
        <dc:title />
      </cc:Work>
    </rdf:RDF>
  </metadata>
  <defs
     id="defs6">
    <clipPath
       id="clipPath-408241621">
      <g
         id="g3616"
         transform="translate(0,-1004.3622)">
        <path
           id="path3618"
           transform="matrix(15.333333,0,0,11.5,414.99999,878.8622)"
           d="m -24,13 c 0,1.105 -0.672,2 -1.5,2 -0.828,0 -1.5,-0.895 -1.5,-2 0,-1.105 0.672,-2 1.5,-2 0.828,0 1.5,0.895 1.5,2 z"
           inkscape:connector-curvature="0"
           style="fill:#1890d0" />
      </g>
    </clipPath>
    <clipPath
       id="clipPath-408241621-2">
      <g
         id="g3616-2"
         transform="translate(0,-1004.3622)">
        <path
           id="path3618-9"
           transform="matrix(15.333333,0,0,11.5,414.99999,878.8622)"
           d="m -24,13 c 0,1.105 -0.672,2 -1.5,2 -0.828,0 -1.5,-0.895 -1.5,-2 0,-1.105 0.672,-2 1.5,-2 0.828,0 1.5,0.895 1.5,2 z"
           inkscape:connector-curvature="0"
           style="fill:#1890d0" />
      </g>
    </clipPath>
    <clipPath
       id="clipPath-408241621-2-6">
      <g
         id="g3616-2-4"
         transform="translate(0,-1004.3622)">
        <path
           id="path3618-9-4"
           transform="matrix(15.333333,0,0,11.5,414.99999,878.8622)"
           d="m -24,13 c 0,1.105 -0.672,2 -1.5,2 -0.828,0 -1.5,-0.895 -1.5,-2 0,-1.105 0.672,-2 1.5,-2 0.828,0 1.5,0.895 1.5,2 z"
           inkscape:connector-curvature="0"
           style="fill:#1890d0" />
      </g>
    </clipPath>
  </defs>
  <sodipodi:namedview
     pagecolor="#ffffff"
     bordercolor="#666666"
     borderopacity="1"
     objecttolerance="10"
     gridtolerance="10"
     guidetolerance="10"
     inkscape:pageopacity="0"
     inkscape:pageshadow="2"
     inkscape:window-width="1366"
     inkscape:window-height="747"
     id="namedview4"
     showgrid="true"
     showguides="false"
     inkscape:zoom="22.627416"
     inkscape:cx="11.990585"
     inkscape:cy="12.354745"
     inkscape:window-x="0"
     inkscape:window-y="21"
     inkscape:window-maximized="1"
     inkscape:current-layer="svg2">
    <inkscape:grid
       type="xygrid"
       id="grid4142" />
  </sodipodi:namedview>
  <path
     style="opacity:1;fill:#353535;fill-opacity:0.94117647;fill-rule:nonzero;stroke:none;stroke-width:1;stroke-linecap:square;stroke-linejoin:round;stroke-miterlimit:4;stroke-dasharray:none;stroke-dashoffset:0;stroke-opacity:1"
     d="M 10.925781 6.1914062 C 9.9763445 6.2510065 9.0279214 6.574212 8.21875 7.1621094 C 7.2721976 7.8498199 6.6456073 8.7985085 6.3496094 9.8359375 C 6.4928138 9.7790287 6.6423214 9.7236652 6.7890625 9.6679688 C 7.0831205 8.7968811 7.634529 8.0134466 8.421875 7.4414062 C 9.8680943 6.3906664 11.772425 6.2568986 13.296875 7.0957031 L 14 7.4824219 L 13.773438 7.8359375 C 14.149769 7.7801636 14.515879 7.7356157 14.875 7.6972656 L 14.830078 7.5683594 C 14.751549 7.5429845 14.659007 7.5158953 14.59375 7.4921875 C 14.279551 7.3780378 13.975785 7.2373217 13.677734 7.0859375 C 13.349484 6.9192149 13.135472 6.7663215 12.720703 6.5332031 C 12.591167 6.4603989 12.436297 6.3757597 12.283203 6.2929688 C 11.840254 6.1987629 11.383254 6.1626887 10.925781 6.1914062 z M 11.167969 8.0527344 C 10.521885 8.0475661 9.8649068 8.2458547 9.3027344 8.6542969 C 9.187433 8.7380683 9.0815641 8.8286487 8.9804688 8.9238281 C 9.3032369 8.8265156 9.6255094 8.7289265 9.9589844 8.6386719 C 10.567954 8.4738547 11.163829 8.3356144 11.751953 8.2089844 L 11.806641 8.125 C 11.597444 8.0782054 11.38333 8.0544571 11.167969 8.0527344 z M 16.822266 8.3535156 C 16.783211 8.3542927 16.738622 8.3602753 16.699219 8.3613281 L 16.794922 8.6289062 L 17.052734 8.5625 L 17.238281 9.2988281 C 17.595375 10.718503 17.403262 12.188958 16.794922 13.486328 C 19.547985 12.187213 21.25324 10.727399 20.96875 9.6542969 C 20.738921 8.7824483 19.221652 8.3057902 16.822266 8.3535156 z M 11.130859 9.1757812 C 10.825914 9.2495038 10.523012 9.3155587 10.216797 9.3984375 C 9.5318706 9.5838072 8.8701053 9.7861882 8.234375 10 C 7.9900581 10.579129 7.9226719 11.217833 8.0703125 11.837891 L 8.2382812 12.548828 L 8.1328125 12.578125 L 11.339844 12.189453 L 10.234375 13.910156 C 11.063102 14.093206 11.955355 13.912061 12.71875 13.357422 C 13.749366 12.608636 14.227082 11.312859 13.9375 10.154297 L 13.761719 9.4550781 L 10.685547 9.8710938 L 11.130859 9.1757812 z M 15.849609 10.433594 L 15.458984 10.537109 C 15.568948 12.082617 14.905156 13.623197 13.601562 14.570312 C 13.41755 14.704006 13.225917 14.823183 13.029297 14.927734 C 13.408455 14.809657 13.78158 14.691006 14.142578 14.564453 C 15.355721 13.506622 15.963702 11.956708 15.849609 10.433594 z M 6.5800781 10.611328 C 6.441959 10.666818 6.3100647 10.722842 6.1757812 10.779297 C 6.1537691 11.034894 6.1448026 11.29073 6.1621094 11.548828 L 6.5507812 11.445312 C 6.5331292 11.165031 6.5479229 10.886861 6.5800781 10.611328 z M 4.6152344 11.5 C 2.2099923 12.724177 0.76738412 14.053517 1.03125 15.048828 C 1.3060553 16.091168 3.3777397 16.507594 6.2675781 16.289062 L 5.2050781 13.355469 L 4.9433594 13.425781 L 4.7636719 12.677734 C 4.6707642 12.286767 4.6317948 11.892697 4.6152344 11.5 z M 8.3554688 14.0625 L 7.109375 14.212891 L 7.5058594 15.302734 L 7.7792969 14.878906 L 8.3945312 15.226562 C 8.8629602 15.492099 9.3698551 15.662949 9.890625 15.757812 C 10.292185 15.673118 10.706257 15.565968 11.119141 15.462891 C 10.305742 15.511058 9.4852271 15.345155 8.7460938 14.941406 L 8.0390625 14.556641 L 8.3554688 14.0625 z "
     id="path4138" />
  <g
     id="g4263"
     transform="matrix(0.42307692,0,0,0.42307692,6.3606939,7.5192308)">
    <g
       style="fill:#353535;fill-opacity:1"
       id="g3628"
       transform="matrix(0.34782609,0,0,0.34782609,2.6435901,2.6456559)" />
    <g
       transform="matrix(0.49988464,0,0,0.49988464,-37.411065,7.9950011)"
       clip-path="url(#clipPath-408241621)"
       id="g3650">
      <!-- color: #004794 -->
      <g
         id="g3652" />
    </g>
  </g>
  <g
     id="g4174"
     transform="matrix(-0.809017,0.58778525,-0.58778525,-0.809017,26.371806,13.433597)">
    <g
       style="fill:#353535;fill-opacity:1"
       id="g3628-8"
       transform="matrix(0.34782609,0,0,0.34782609,2.6435901,2.6456559)">
      <path
         inkscape:connector-curvature="0"
         id="path3630"
         transform="matrix(2.875,0,0,2.875,97.067647,-33.481261)"
         d="m -25.40625,14.5 c 2.303968,0 4.367461,1.302964 5.28125,3.3125 l 1.21875,-0.46875 -1,3.46875 -3.3125,-1.84375 1.28125,-0.5 c -0.620857,-1.310198 -1.9541,-2.125 -3.46875,-2.125 -1.572637,0 -2.996131,0.939574 -3.5625,2.34375 L -30.75,18 c 0.844805,-2.103515 2.984794,-3.5 5.34375,-3.5 z m -5.5,4.71875 3.3125,1.78125 -1.28125,0.5 c 0.613358,1.304699 1.964097,2.15625 3.46875,2.15625 1.575636,0 2.978635,-0.910324 3.5625,-2.3125 l 1.78125,0.6875 c -0.876798,2.103015 -2.979296,3.46875 -5.34375,3.46875 -2.292471,0 -4.386956,-1.339213 -5.28125,-3.34375 l -1.21875,0.4375 z"
         style="fill:#353535;fill-opacity:1"
         sodipodi:nodetypes="scccccsccscccsccsccc" />
    </g>
    <g
       transform="matrix(0.49988464,0,0,0.49988464,-37.411065,7.9950011)"
       clip-path="url(#clipPath-408241621-2)"
       id="g3650-3">
      <!-- color: #004794 -->
      <g
         id="g3652-1" />
    </g>
  </g>
  <g
     id="g4174-4"
     style="stroke:#000000;stroke-width:1.5;stroke-miterlimit:4;stroke-dasharray:none;stroke-opacity:1"
     transform="matrix(-0.809017,0.58778525,-0.58778525,-0.809017,16.377415,13.28707)">
    <g
       style="fill:#353535;fill-opacity:1;stroke:#000000;stroke-width:4.3125;stroke-miterlimit:4;stroke-dasharray:none;stroke-opacity:1"
       id="g3628-8-4"
       transform="matrix(0.34782609,0,0,0.34782609,2.6435901,2.6456559)" />
    <g
       transform="matrix(0.49988464,0,0,0.49988464,-37.411065,7.9950011)"
       clip-path="url(#clipPath-408241621-2-6)"
       id="g3650-3-9"
       style="stroke:#000000;stroke-width:3.00069237;stroke-miterlimit:4;stroke-dasharray:none;stroke-opacity:1">
      <!-- color: #004794 -->
      <g
         id="g3652-1-7"
         style="stroke:#000000;stroke-width:3.00069237;stroke-miterlimit:4;stroke-dasharray:none;stroke-opacity:1" />
    </g>
  </g>
</svg>

<!-- Created with Inkscape (http://www.inkscape.org/) -->
<svg xmlns="http://www.w3.org/2000/svg" viewBox="0 0 22 22">
 <path d="m 10.926 6.191 c -0.949 0.06 -1.898 0.383 -2.707 0.971 c -0.947 0.688 -1.573 1.636 -1.869 2.674 c 0.143 -0.057 0.293 -0.112 0.439 -0.168 c 0.294 -0.871 0.845 -1.655 1.633 -2.227 c 1.446 -1.051 3.351 -1.185 4.875 -0.346 l 0.703 0.387 l -0.227 0.354 c 0.376 -0.056 0.742 -0.1 1.102 -0.139 l -0.045 -0.129 c -0.079 -0.025 -0.171 -0.052 -0.236 -0.076 c -0.314 -0.114 -0.618 -0.255 -0.916 -0.406 c -0.328 -0.167 -0.542 -0.32 -0.957 -0.553 c -0.13 -0.073 -0.284 -0.157 -0.438 -0.24 c -0.443 -0.094 -0.9 -0.13 -1.357 -0.102 z m 0.242 1.861 c -0.646 -0.005 -1.303 0.193 -1.865 0.602 c -0.115 0.084 -0.221 0.174 -0.322 0.27 c 0.323 -0.097 0.645 -0.195 0.979 -0.285 c 0.609 -0.165 1.205 -0.303 1.793 -0.43 l 0.055 -0.084 c -0.209 -0.047 -0.423 -0.071 -0.639 -0.072 z m 5.654 0.301 c -0.039 0.001 -0.084 0.007 -0.123 0.008 l 0.096 0.268 l 0.258 -0.066 l 0.186 0.736 c 0.357 1.42 0.165 2.89 -0.443 4.187 c 2.753 -1.299 4.458 -2.759 4.174 -3.832 c -0.23 -0.872 -1.747 -1.349 -4.146 -1.301 z m -5.691 0.822 c -0.305 0.074 -0.608 0.14 -0.914 0.223 c -0.685 0.185 -1.347 0.388 -1.982 0.602 c -0.244 0.579 -0.312 1.218 -0.164 1.838 l 0.168 0.711 l -0.105 0.029 l 3.207 -0.389 l -1.105 1.721 c 0.829 0.183 1.721 0.002 2.484 -0.553 c 1.031 -0.749 1.508 -2.045 1.219 -3.203 l -0.176 -0.699 l -3.076 0.416 l 0.445 -0.695 z m 4.719 1.258 l -0.391 0.104 c 0.11 1.546 -0.554 3.086 -1.857 4.03 c -0.184 0.134 -0.376 0.253 -0.572 0.357 c 0.379 -0.118 0.752 -0.237 1.113 -0.363 c 1.213 -1.058 1.821 -2.608 1.707 -4.131 z m -9.27 0.178 c -0.138 0.055 -0.27 0.112 -0.404 0.168 c -0.022 0.256 -0.031 0.511 -0.014 0.77 l 0.389 -0.104 c -0.018 -0.28 -0.003 -0.558 0.029 -0.834 z m -1.965 0.889 c -2.405 1.224 -3.848 2.554 -3.584 3.549 c 0.275 1.042 2.346 1.459 5.236 1.24 l -1.063 -2.934 l -0.262 0.07 l -0.18 -0.748 c -0.093 -0.391 -0.132 -0.785 -0.148 -1.178 z m 3.74 2.563 l -1.246 0.15 l 0.396 1.09 l 0.273 -0.424 l 0.615 0.348 c 0.468 0.266 0.975 0.436 1.496 0.531 c 0.402 -0.085 0.816 -0.192 1.229 -0.295 c -0.813 0.048 -1.634 -0.118 -2.373 -0.521 l -0.707 -0.385 l 0.316 -0.494 z" style="fill:#353535;opacity:1;fill-opacity:0.941;stroke:none;fill-rule:nonzero"/>
 <g transform="matrix(0.42307692,0,0,0.42307692,6.3606939,7.5192308)">
  <g transform="matrix(0.49988464,0,0,0.49988464,-37.411065,7.9950011)">
   <!-- color: #004794 -->
  </g>
 </g>
 <g transform="matrix(-0.809017,0.58778525,-0.58778525,-0.809017,26.371806,13.433597)">
  <g transform="matrix(0.34782609,0,0,0.34782609,2.6435901,2.6456559)" style="fill:#353535;fill-opacity:1">
   <path transform="matrix(2.875,0,0,2.875,97.067647,-33.481261)" d="m -25.406 14.5 c 2.304 0 4.367 1.303 5.281 3.313 l 1.219 -0.469 -1 3.469 -3.313 -1.844 1.281 -0.5 c -0.621 -1.31 -1.954 -2.125 -3.469 -2.125 -1.573 0 -2.996 0.94 -3.563 2.344 l -1.781 -0.688 c 0.845 -2.104 2.985 -3.5 5.344 -3.5 z m -5.5 4.719 3.313 1.781 -1.281 0.5 c 0.613 1.305 1.964 2.156 3.469 2.156 1.576 0 2.979 -0.91 3.563 -2.313 l 1.781 0.688 c -0.877 2.103 -2.979 3.469 -5.344 3.469 -2.292 0 -4.387 -1.339 -5.281 -3.344 l -1.219 0.438 z"/>
  </g>
  <g transform="matrix(0.49988464,0,0,0.49988464,-37.411065,7.9950011)">
   <!-- color: #004794 -->
  </g>
 </g>
 <g transform="matrix(-0.809017,0.58778525,-0.58778525,-0.809017,16.377415,13.28707)" style="stroke-dasharray:none;stroke-opacity:1;stroke-miterlimit:4;stroke:#000;stroke-width:1.5">
  <g transform="matrix(0.49988464,0,0,0.49988464,-37.411065,7.9950011)" style="stroke-width:3">
   <!-- color: #004794 -->
  </g>
 </g>
</svg>
